X: 155
T:Will Ye No Come Back
M:4/4
L:1/4
K:F
"F"F>G A F|"Bb"D F "C"C2|"F"c>d c A|A "C"G G2|!
"F"F/2 F G/2 A F|"Bb"D F "Am"C2|"F"c>d c A|"C"G>F "F"F2||!
"Fmaj7"A c c c|A>c c2|"Bb"f>e d c|"F"d/2c A/2 "C7"G2|!
"F"A<A G F|"Bb"E<F "C"C2|"Bb"d>c "F"c A|"C7"G>"F"F F2:||
% <A name="D1X156">
